X:532
M:C|
L:1/8
K:D
f|abaf beef|abaf defd|efdf eEEF|D2dF ADDf|abaf beef|abaf defd|
efdf eEEd|AdFd ADD||
d|AdFd ADDd|AdFA BEEd|AdFd Adfd|efdf eEEd|AdFd ADDd|
f|abaf beef|abaf defd|efdf eEEF|D2dF ADDf|abaf beef|abaf defd|
efdf eEEd|AdFd ADD||

